!!!OTL: ES GIENG EIN MAEDCHEN GRASEN WOHL
!!!ARE: Europa, Mitteleuropa, Deutschland, Dillkreis
!!!SCT: E0071D
!!!YEM: Copyright 1995, estate of Helmut Schaffrath.
**kern
*ICvox
*Ivox
*M4/4
*k[f#]
*G:
{4dd
=1
4g
4b
4b
4dd
=2
4g
4b
4b}
{4dd
=3
4.dd
8cc
4cc
4b
=4
2dd
4a}
{8a
8b
=5
4cc
4ee
4ee
4cc
=6
4b
4dd
4dd}
{4b
=7
4a
4a
4dd
8dd
8cc
=8
4b
4dd
4dd}
{8dd
8dd
=9
4cc
4ee
4ee
4cc
=10
4b
4dd
4dd}
{4b
=11
4a
4a
4dd
8dd
8cc
=12
2b
4r}
==
!!!AGN: erzaehlendes Volks - Lied, Sage, Liebe, Ballade ?
!!!ONB: ESAC (Essen Associative Code) Database: ERK1
!!!AMT: simple quadruple
!!!AIN: vox
!!!EED: Helmut Schaffrath
!!!EEV: 1.0
*-
